sources/design/Outline/braceleft.svg

<svg:svg xmlns:cc="http://creativecommons.org/ns#" xmlns:dc="http://purl.org/dc/elements/1.1/" xmlns:inkscape="http://www.inkscape.org/namespaces/inkscape" xmlns:rdf="http://www.w3.org/1999/02/22-rdf-syntax-ns#" xmlns:sodipodi="http://sodipodi.sourceforge.net/DTD/sodipodi-0.dtd" xmlns:svg="http://www.w3.org/2000/svg" xml:space="preserve" width="1000" height="1000" version="1.1" style="clip-rule:evenodd;fill-rule:evenodd;image-rendering:optimizeQuality;shape-rendering:geometricPrecision;text-rendering:geometricPrecision" viewBox="0 0 1000 1000" id="svg10" sodipodi:docname="braceleft.svg" inkscape:version="1.0.2 (e86c870879, 2021-01-15)"><svg:metadata id="metadata14"><rdf:RDF><cc:Work rdf:about=""><dc:format>image/svg+xml</dc:format><dc:type rdf:resource="http://purl.org/dc/dcmitype/StillImage" /><dc:title /></cc:Work></rdf:RDF></svg:metadata><sodipodi:namedview pagecolor="#ffffff" bordercolor="#666666" borderopacity="1" objecttolerance="10" gridtolerance="10" guidetolerance="10" inkscape:pageopacity="0" inkscape:pageshadow="2" inkscape:window-width="1920" inkscape:window-height="1007" id="namedview12" showgrid="false" inkscape:zoom="0.84890884" inkscape:cx="439.02086" inkscape:cy="323.86324" inkscape:window-x="1920" inkscape:window-y="0" inkscape:window-maximized="1" inkscape:current-layer="svg10" showguides="true" inkscape:guide-bbox="true" inkscape:document-rotation="0" inkscape:pagecheckerboard="0"><sodipodi:guide position="0,1000" orientation="0,1" id="guide16" inkscape:label="" inkscape:locked="true" inkscape:color="rgb(0,0,255)" /><sodipodi:guide position="1763.3122,2036.1693" orientation="1000,0" id="guide18" /><sodipodi:guide position="0,200" orientation="0,1" id="guide20" inkscape:label="base" inkscape:locked="true" inkscape:color="rgb(0,0,255)" /><inkscape:grid type="xygrid" id="grid24" originx="-473.37552" originy="-489.69235" /><sodipodi:guide position="0,0" orientation="0,1" id="guide34" inkscape:label="bottom" inkscape:locked="true" inkscape:color="rgb(0,0,255)" /><sodipodi:guide position="225.05109,1693.3186" orientation="0,1" id="guide44" inkscape:label="" inkscape:locked="false" inkscape:color="rgb(0,0,255)" /><sodipodi:guide position="0,900" orientation="0,1" id="guide46" inkscape:label="" inkscape:locked="true" inkscape:color="rgb(0,0,255)" /><sodipodi:guide position="286.20378,623.18822" orientation="-1,0" id="guide841" inkscape:label="width" inkscape:locked="false" inkscape:color="rgb(0,0,255)" /></sodipodi:namedview>
 <svg:defs id="defs4"><inkscape:path-effect effect="fillet_chamfer" id="path-effect855" is_visible="true" lpeversion="1" satellites_param="F,0,1,1,0,14.89323,0,1 @ F,0,1,1,0,14.89323,0,1 @ F,0,0,1,0,0,0,1 @ F,0,0,1,0,0,0,1 @ F,0,0,1,0,0,0,1 @ F,0,0,1,0,0,0,1 @ F,0,0,1,0,0,0,1 @ F,0,0,1,0,0,0,1 @ F,0,0,1,0,0,0,1 @ F,0,1,1,0,14.89323,0,1 @ F,0,1,1,0,14.89323,0,1 @ F,0,0,1,0,0,0,1 @ F,0,0,1,0,0,0,1 @ F,0,0,1,0,0,0,1 @ F,0,0,1,0,0,0,1 @ F,0,0,1,0,0,0,1 @ F,0,0,1,0,0,0,1 @ F,0,0,1,0,0,0,1 @ F,0,1,1,0,14.89323,0,1 @ F,0,1,1,0,14.89323,0,1 @ F,0,0,1,0,0,0,1 @ F,0,0,1,0,0,0,1 @ F,0,0,1,0,0,0,1 @ F,0,0,1,0,0,0,1 @ F,0,0,1,0,0,0,1 @ F,0,0,1,0,0,0,1 @ F,0,0,1,0,0,0,1 @ F,0,0,1,0,0,0,1 @ F,0,0,1,0,0,0,1 @ F,0,0,1,0,0,0,1 @ F,0,0,1,0,0,0,1 @ F,0,0,1,0,0,0,1 @ F,0,0,1,0,0,0,1 @ F,0,0,1,0,0,0,1 @ F,0,0,1,0,0,0,1 @ F,0,0,1,0,0,0,1 @ F,0,0,1,0,0,0,1" unit="px" method="auto" mode="F" radius="0" chamfer_steps="1" flexible="false" use_knot_distance="true" apply_no_radius="true" apply_with_radius="true" only_selected="true" hide_knots="false" /><inkscape:path-effect effect="fillet_chamfer" id="path-effect854" is_visible="true" lpeversion="1" satellites_param="F,0,0,1,0,25.114009,0,1 @ F,0,0,1,0,16.624318,0,1 @ F,0,0,1,0,0,0,1 @ F,0,0,1,0,0,0,1 @ F,0,0,1,0,0,0,1 @ F,0,0,1,0,0,0,1 @ F,0,0,1,0,0,0,1 @ F,0,0,1,0,0,0,1 @ F,0,0,1,0,14.336572,0,1 @ F,0,0,1,0,10.899728,0,1 @ F,0,0,1,0,0,0,1 @ F,0,0,1,0,0,0,1 @ F,0,0,1,0,0,0,1 @ F,0,0,1,0,0,0,1 @ F,0,0,1,0,0,0,1 @ F,0,0,1,0,0,0,1 @ F,0,0,1,0,26.554394,0,1 @ F,0,0,1,0,18.512591,0,1 @ F,0,0,1,0,0,0,1 @ F,0,0,1,0,0,0,1 @ F,0,0,1,0,0,0,1 @ F,0,0,1,0,0,0,1 @ F,0,0,1,0,0,0,1 @ F,0,0,1,0,0,0,1 @ F,0,0,1,0,0,0,1 @ F,0,0,1,0,0,0,1 @ F,0,0,1,0,0,0,1 @ F,0,0,1,0,0,0,1 @ F,0,0,1,0,0,0,1 @ F,0,0,1,0,0,0,1" unit="px" method="auto" mode="F" radius="0" chamfer_steps="1" flexible="false" use_knot_distance="true" apply_no_radius="true" apply_with_radius="true" only_selected="true" hide_knots="false" /><inkscape:path-effect effect="spiro" id="path-effect853" is_visible="true" lpeversion="1" /><inkscape:path-effect effect="spiro" id="path-effect852" is_visible="true" lpeversion="1" /><inkscape:path-effect effect="spiro" id="path-effect850" is_visible="true" lpeversion="1" /><inkscape:path-effect effect="spiro" id="path-effect851" is_visible="true" lpeversion="1" />
  <svg:style type="text/css" id="style2">
   
    .fil0 {fill:#EF7F1A;fill-rule:nonzero}
   
  </svg:style>
 <inkscape:path-effect effect="spiro" id="path-effect1214" is_visible="true" lpeversion="1" /><inkscape:path-effect effect="spiro" id="path-effect1195" is_visible="true" lpeversion="1" /><inkscape:path-effect effect="spiro" id="path-effect992" is_visible="true" lpeversion="1" /><inkscape:path-effect effect="spiro" id="path-effect1060" is_visible="true" lpeversion="1" /><inkscape:path-effect effect="spiro" id="path-effect1047" is_visible="true" lpeversion="1" /><inkscape:path-effect effect="spiro" id="path-effect1085" is_visible="true" lpeversion="1" /><inkscape:path-effect effect="spiro" id="path-effect1286" is_visible="true" lpeversion="1" /><inkscape:path-effect effect="spiro" id="path-effect1305" is_visible="true" lpeversion="1" /></svg:defs>
 
<svg:g id="path850"><svg:path style="color:#000000;clip-rule:nonzero;fill:#1a5fb4;fill-rule:nonzero;stroke-linecap:round;stroke-linejoin:round;-inkscape-stroke:none;paint-order:fill stroke markers;shape-rendering:auto" d="M 254.2168,-33.650391 C 205.54945,-35.116425 156.80716,-21.590725 115.95313,5.4609375 C 90.997959,21.985101 68.784631,43.580254 52.507812,69.943359 C 36.178252,96.39189 26.215468,127.20304 25.830078,159.32031 C 25.186853,212.92486000000002 48.308006,256.05202 57.117187,293.68359 C 61.489423,312.36116999999996 62.847968,330.28283999999996 59.503906,345.42578 C 57.841605,352.95318999999995 55.008639,359.88072 51.275391,365.54102 C 47.577214999999995,371.14814 42.77355,375.75734 37.761719,378.67578000000003 C 32.057146,381.99762000000004 24.666854999999998,383.70644000000004 17.705078,383.23242000000005 C 7.619377400000001,382.54571000000004 -3.7575331,384.82193000000007 -13.384765999999999,392.49609000000004 C -23.011998,400.17026000000004 -28.925677999999998,413.57715 -28.867187,425.48242000000005 L -28.496094000000003,501.15234000000004 C -28.437244000000003,513.1300200000001 -22.484445,526.22008 -13.000000000000004,533.85352 C -3.5155549000000033,541.48695 7.903663799999997,544.00274 18.220702999999997,543.31641 C 24.884812999999998,542.8730800000001 31.786835999999997,544.03476 37.728516,546.57422 C 46.049465999999995,550.1305699999999 54.210935,557.0758 60.375,565.94336 C 66.62983,574.9414899999999 71.246497,586.2257099999999 74.173828,598.64062 C 79.652299,621.87503 79.155244,648.21916 76.640625,676.05664 C 74.121038,703.94912 69.600007,733.83072 69.6875,765.97461 C 69.822656,815.62948 82.073542,868.54501 116.28125,910.14258 C 137.17585,935.55102 164.92967,954.74371 196.07812,965.32422 C 221.5421,973.9738199999999 248.71016000000003,976.65131 275.28906,973.3105499999999 C 301.32607,970.03789 317.52422,944.23615 312.55664,920.2656199999999 L 296.78516,844.1562499999999 C 291.83671000000004,820.2780399999999 273.82555,807.8934799999998 253.46484,805.1992199999999 C 246.05964,804.2193099999998 238.77071,801.8334999999998 232.32617000000002,798.2812499999999 C 223.01934000000003,793.1512899999999 214.87336000000002,785.19941 209.51953000000003,776.0195299999999 C 203.78082000000003,766.17973 200.37252000000004,753.53847 199.33008000000004,739.8457 C 198.27922000000004,726.0423599999999 199.50349000000003,710.9391099999999 201.68164000000004,694.84375 C 206.05014000000006,662.5628 215.09335000000004,625.0044 208.01367000000005,583.51758 C 202.50399000000004,551.23088 187.44635000000005,522.20139 167.58203000000003,498.26171999999997 C 159.96888000000004,489.08666 151.69011000000003,480.70334999999994 142.95508000000004,473.00390999999996 C 149.23673000000005,467.25532999999996 155.03659000000005,460.98677999999995 160.17578000000003,454.18359 C 175.62343000000004,433.7342 185.10941000000003,409.60783 188.33789000000002,384.625 C 191.67895000000001,358.77097 188.25859000000003,334.4925 183.9668,312.64258 C 179.68518,290.84457000000003 174.54453,271.16294 172.16211,252.96289000000002 C 170.07182,236.99459000000002 169.90913,221.33988000000002 172.32422000000003,206.79297000000003 C 174.72739,192.31783000000001 179.80397000000002,178.71136 187.29883000000004,167.68164000000002 C 195.48137000000003,155.63989 207.35138000000003,145.66669000000002 220.62305000000003,139.68164000000002 C 230.63194000000004,135.16798000000003 241.81120000000004,132.72545000000002 252.90039000000004,132.61523000000003 C 274.59464,132.39961000000002 295.26292000000007,118.29829000000002 299.63281000000006,94.17382800000003 L 313.06836000000004,20.00195300000003 C 317.42835,-4.067858799999971 300.62229,-29.05254299999997 275.04492000000005,-32.10156199999997 C 268.11870000000005,-32.92722199999997 261.16927000000004,-33.440956999999976 254.21680000000003,-33.65039099999997 L 254.2168,-33.650391 M 250.93945,26.367187 L 242.45117,73.222656 C 226.45296,74.501093 210.69531999999998,78.337929 195.95702999999997,84.984375 C 172.40687999999997,95.60466 152.19153999999997,112.59127000000001 137.67186999999998,133.95898 C 124.49220999999999,153.3547 116.75621999999998,175.15355 113.13476999999999,196.9668 C 109.52523,218.70827 109.98568999999999,240.24438 112.66991999999999,260.75 C 115.7186,284.03972 121.30846999999999,304.94589 125.09179999999999,324.20703000000003 C 128.86491999999998,343.41626 130.85375,361.29093 128.83203,376.93555000000003 C 126.90528,391.84529000000003 121.09867,406.37105 112.30078,418.01758000000007 C 106.52356,425.66539000000006 99.170247,432.1386800000001 91.103516,437.1914100000001 C 84.932739,433.8098800000001 78.671723,430.6026800000001 72.296875,427.6230500000001 C 84.138343,419.8283400000001 93.927476,409.8502400000001 101.36328,398.5761700000001 C 109.67851,385.9687300000001 115.0372,372.2062300000001 118.09375,358.3652300000001 C 124.18739,330.77136000000013 121.1405,303.9447000000001 115.53711,280.0078100000001 C 104.39504,232.41047 85.417172,193.96314 85.824219,160.04102 C 86.064264,140.03634 92.506066,119.36948 103.56055,101.46484 C 114.66777,83.474788 130.57178,67.742333 149.07812,55.488281 C 178.72081,35.860257 215.14095,25.668476 250.93945,26.367187 M 85.572266,504.24219 C 99.141755,513.76946 111.38884999999999,524.4993 121.4082,536.57422 C 135.48999,553.5450099999999 145.43637999999999,573.49538 148.86914,593.61133 C 153.33173,619.7620599999999 147.05581999999998,651.08425 142.22266,686.79883 C 139.79997,704.7012299999999 137.94848,723.99506 139.50195,744.4003899999999 C 141.06384,764.9162899999999 146.14417,786.4520699999999 157.68945,806.2480499999999 C 168.60236,824.95971 184.39283,840.3715599999999 203.36328,850.8281199999999 C 214.68825,857.0704799999999 226.92939,861.2690899999999 239.53906,863.5937499999999 L 250.08594,914.4843699999999 C 238.26399999999998,914.1777799999999 226.47012999999998,912.2798499999999 215.37695,908.5117199999999 C 195.00277,901.5910199999998 176.29214,888.6528499999998 162.625,872.0331999999999 C 140.0976,844.6392299999999 129.79547,805.4789399999999 129.6875,765.8105499999998 C 129.6163,739.6581299999998 133.67138,711.6227199999998 136.39648,681.4550799999998 C 139.12655999999998,651.2324399999999 140.47272,618.3772399999998 132.57227,584.8710899999999 C 128.3127,566.8061299999998 121.26192,548.4127199999998 109.64258000000001,531.6972699999999 C 102.63922000000001,521.6223099999999 94.01354900000001,512.3506599999998 83.85937500000001,504.6249999999999 C 84.42812700000002,504.48660999999987 85.00527500000001,504.38810999999987 85.57226600000001,504.2421899999999 L 85.572266,504.24219 M 242.79687,864.17773 C 243.73316000000003,864.32403 244.65385,864.55531 245.59375,864.67969 C 244.51413,864.53683 243.60397,864.4038 242.79687,864.17773" id="path20437" /></svg:g></svg:svg>

<svg:svg xmlns:cc="http://creativecommons.org/ns#" xmlns:dc="http://purl.org/dc/elements/1.1/" xmlns:inkscape="http://www.inkscape.org/namespaces/inkscape" xmlns:rdf="http://www.w3.org/1999/02/22-rdf-syntax-ns#" xmlns:sodipodi="http://sodipodi.sourceforge.net/DTD/sodipodi-0.dtd" xmlns:svg="http://www.w3.org/2000/svg" xml:space="preserve" width="1000" height="1000" version="1.1" style="clip-rule:evenodd;fill-rule:evenodd;image-rendering:optimizeQuality;shape-rendering:geometricPrecision;text-rendering:geometricPrecision" viewBox="0 0 1000 1000" id="svg10" sodipodi:docname="braceleft.svg" inkscape:version="1.0.2 (e86c870879, 2021-01-15)"><svg:metadata id="metadata14"><rdf:RDF><cc:Work rdf:about=""><dc:format>image/svg+xml</dc:format><dc:type rdf:resource="http://purl.org/dc/dcmitype/StillImage" /><dc:title /></cc:Work></rdf:RDF></svg:metadata><sodipodi:namedview pagecolor="#ffffff" bordercolor="#666666" borderopacity="1" objecttolerance="10" gridtolerance="10" guidetolerance="10" inkscape:pageopacity="0" inkscape:pageshadow="2" inkscape:window-width="1920" inkscape:window-height="1007" id="namedview12" showgrid="false" inkscape:zoom="0.84890884" inkscape:cx="439.02086" inkscape:cy="323.86324" inkscape:window-x="1920" inkscape:window-y="0" inkscape:window-maximized="1" inkscape:current-layer="svg10" showguides="true" inkscape:guide-bbox="true" inkscape:document-rotation="0" inkscape:pagecheckerboard="0"><sodipodi:guide position="0,1000" orientation="0,1" id="guide16" inkscape:label="" inkscape:locked="true" inkscape:color="rgb(0,0,255)" /><sodipodi:guide position="1763.3122,2036.1693" orientation="1000,0" id="guide18" /><sodipodi:guide position="0,200" orientation="0,1" id="guide20" inkscape:label="base" inkscape:locked="true" inkscape:color="rgb(0,0,255)" /><inkscape:grid type="xygrid" id="grid24" originx="-473.37552" originy="-489.69235" /><sodipodi:guide position="0,0" orientation="0,1" id="guide34" inkscape:label="bottom" inkscape:locked="true" inkscape:color="rgb(0,0,255)" /><sodipodi:guide position="225.05109,1693.3186" orientation="0,1" id="guide44" inkscape:label="" inkscape:locked="false" inkscape:color="rgb(0,0,255)" /><sodipodi:guide position="0,900" orientation="0,1" id="guide46" inkscape:label="" inkscape:locked="true" inkscape:color="rgb(0,0,255)" /><sodipodi:guide position="286.20378,623.18822" orientation="-1,0" id="guide841" inkscape:label="width" inkscape:locked="false" inkscape:color="rgb(0,0,255)" /></sodipodi:namedview>
 <svg:defs id="defs4"><inkscape:path-effect effect="fillet_chamfer" id="path-effect855" is_visible="true" lpeversion="1" satellites_param="F,0,1,1,0,14.89323,0,1 @ F,0,1,1,0,14.89323,0,1 @ F,0,0,1,0,0,0,1 @ F,0,0,1,0,0,0,1 @ F,0,0,1,0,0,0,1 @ F,0,0,1,0,0,0,1 @ F,0,0,1,0,0,0,1 @ F,0,0,1,0,0,0,1 @ F,0,0,1,0,0,0,1 @ F,0,1,1,0,14.89323,0,1 @ F,0,1,1,0,14.89323,0,1 @ F,0,0,1,0,0,0,1 @ F,0,0,1,0,0,0,1 @ F,0,0,1,0,0,0,1 @ F,0,0,1,0,0,0,1 @ F,0,0,1,0,0,0,1 @ F,0,0,1,0,0,0,1 @ F,0,0,1,0,0,0,1 @ F,0,1,1,0,14.89323,0,1 @ F,0,1,1,0,14.89323,0,1 @ F,0,0,1,0,0,0,1 @ F,0,0,1,0,0,0,1 @ F,0,0,1,0,0,0,1 @ F,0,0,1,0,0,0,1 @ F,0,0,1,0,0,0,1 @ F,0,0,1,0,0,0,1 @ F,0,0,1,0,0,0,1 @ F,0,0,1,0,0,0,1 @ F,0,0,1,0,0,0,1 @ F,0,0,1,0,0,0,1 @ F,0,0,1,0,0,0,1 @ F,0,0,1,0,0,0,1 @ F,0,0,1,0,0,0,1 @ F,0,0,1,0,0,0,1 @ F,0,0,1,0,0,0,1 @ F,0,0,1,0,0,0,1 @ F,0,0,1,0,0,0,1" unit="px" method="auto" mode="F" radius="0" chamfer_steps="1" flexible="false" use_knot_distance="true" apply_no_radius="true" apply_with_radius="true" only_selected="true" hide_knots="false" /><inkscape:path-effect effect="fillet_chamfer" id="path-effect854" is_visible="true" lpeversion="1" satellites_param="F,0,0,1,0,25.114009,0,1 @ F,0,0,1,0,16.624318,0,1 @ F,0,0,1,0,0,0,1 @ F,0,0,1,0,0,0,1 @ F,0,0,1,0,0,0,1 @ F,0,0,1,0,0,0,1 @ F,0,0,1,0,0,0,1 @ F,0,0,1,0,0,0,1 @ F,0,0,1,0,14.336572,0,1 @ F,0,0,1,0,10.899728,0,1 @ F,0,0,1,0,0,0,1 @ F,0,0,1,0,0,0,1 @ F,0,0,1,0,0,0,1 @ F,0,0,1,0,0,0,1 @ F,0,0,1,0,0,0,1 @ F,0,0,1,0,0,0,1 @ F,0,0,1,0,26.554394,0,1 @ F,0,0,1,0,18.512591,0,1 @ F,0,0,1,0,0,0,1 @ F,0,0,1,0,0,0,1 @ F,0,0,1,0,0,0,1 @ F,0,0,1,0,0,0,1 @ F,0,0,1,0,0,0,1 @ F,0,0,1,0,0,0,1 @ F,0,0,1,0,0,0,1 @ F,0,0,1,0,0,0,1 @ F,0,0,1,0,0,0,1 @ F,0,0,1,0,0,0,1 @ F,0,0,1,0,0,0,1 @ F,0,0,1,0,0,0,1" unit="px" method="auto" mode="F" radius="0" chamfer_steps="1" flexible="false" use_knot_distance="true" apply_no_radius="true" apply_with_radius="true" only_selected="true" hide_knots="false" /><inkscape:path-effect effect="spiro" id="path-effect853" is_visible="true" lpeversion="1" /><inkscape:path-effect effect="spiro" id="path-effect852" is_visible="true" lpeversion="1" /><inkscape:path-effect effect="spiro" id="path-effect850" is_visible="true" lpeversion="1" /><inkscape:path-effect effect="spiro" id="path-effect851" is_visible="true" lpeversion="1" />
  <svg:style type="text/css" id="style2">
   
    .fil0 {fill:#EF7F1A;fill-rule:nonzero}
   
  </svg:style>
 <inkscape:path-effect effect="spiro" id="path-effect1214" is_visible="true" lpeversion="1" /><inkscape:path-effect effect="spiro" id="path-effect1195" is_visible="true" lpeversion="1" /><inkscape:path-effect effect="spiro" id="path-effect992" is_visible="true" lpeversion="1" /><inkscape:path-effect effect="spiro" id="path-effect1060" is_visible="true" lpeversion="1" /><inkscape:path-effect effect="spiro" id="path-effect1047" is_visible="true" lpeversion="1" /><inkscape:path-effect effect="spiro" id="path-effect1085" is_visible="true" lpeversion="1" /><inkscape:path-effect effect="spiro" id="path-effect1286" is_visible="true" lpeversion="1" /><inkscape:path-effect effect="spiro" id="path-effect1305" is_visible="true" lpeversion="1" /></svg:defs>
 
<svg:g id="path850"><svg:path style="color:#000000;clip-rule:nonzero;fill:#1a5fb4;fill-rule:nonzero;stroke-linecap:round;stroke-linejoin:round;-inkscape-stroke:none;shape-rendering:auto" d="M 254.2168,-33.650391 C 205.54945,-35.116425 156.80716,-21.590725 115.95313,5.4609375 90.997959,21.985101 68.784631,43.580254 52.507812,69.943359 36.178252,96.39189 26.215468,127.20304 25.830078,159.32031 c -0.643225,53.60455 22.477928,96.73171 31.287109,134.36328 4.372236,18.67758 5.730781,36.59925 2.386719,51.74219 -1.662301,7.52741 -4.495267,14.45494 -8.228515,20.11524 -3.698176,5.60712 -8.501841,10.21632 -13.513672,13.13476 -5.704573,3.32184 -13.094864,5.03066 -20.056641,4.55664 -10.0857006,-0.68671 -21.4626111,1.58951 -31.089844,9.26367 -9.627232,7.67417 -15.540912,21.08106 -15.482421,32.98633 l 0.371093,75.66992 c 0.05885,11.97768 6.011649,25.06774 15.496094,32.70118 9.4844451,7.63343 20.9036638,10.14922 31.220703,9.46289 6.66411,-0.44333 13.566133,0.71835 19.507813,3.25781 8.32095,3.55635 16.482419,10.50158 22.646484,19.36914 6.25483,8.99813 10.871497,20.28235 13.798828,32.69726 5.478471,23.23441 4.981416,49.57854 2.466797,77.41602 -2.519587,27.89248 -7.040618,57.77408 -6.953125,89.91797 0.135156,49.65487 12.386042,102.5704 46.59375,144.16797 20.8946,25.40844 48.64842,44.60113 79.79687,55.18164 25.46398,8.6496 52.63204,11.32709 79.21094,7.98633 26.03701,-3.27266 42.23516,-29.0744 37.26758,-53.04493 l -15.77148,-76.10937 c -4.94845,-23.87821 -22.95961,-36.26277 -43.32032,-38.95703 -7.4052,-0.97991 -14.69413,-3.36572 -21.13867,-6.91797 -9.30683,-5.12996 -17.45281,-13.08184 -22.80664,-22.26172 -5.73871,-9.8398 -9.14701,-22.48106 -10.18945,-36.17383 -1.05086,-13.80334 0.17341,-28.90659 2.35156,-45.00195 4.3685,-32.28095 13.41171,-69.83935 6.33203,-111.32617 -5.50968,-32.2867 -20.56732,-61.31619 -40.43164,-85.25586 -7.61315,-9.17506 -15.89192,-17.55837 -24.62695,-25.25781 6.28165,-5.74858 12.08151,-12.01713 17.2207,-18.82032 15.44765,-20.44939 24.93363,-44.57576 28.16211,-69.55859 3.34106,-25.85403 -0.0793,-50.1325 -4.37109,-71.98242 -4.28162,-21.79801 -9.42227,-41.47964 -11.80469,-59.67969 -2.09029,-15.9683 -2.25298,-31.62301 0.16211,-46.16992 2.40317,-14.47514 7.47975,-28.08161 14.97461,-39.11133 8.18254,-12.04175 20.05255,-22.01495 33.32422,-28 10.00889,-4.51366 21.18815,-6.95619 32.27734,-7.06641 21.69425,-0.21562 42.36253,-14.31694 46.73242,-38.441402 l 13.43555,-74.171875 c 4.35999,-24.0698118 -12.44607,-49.054496 -38.02344,-52.103515 -6.92622,-0.82566 -13.87565,-1.339395 -20.82812,-1.548829 z m -3.27735,60.017578 -8.48828,46.855469 c -15.99821,1.278437 -31.75585,5.115273 -46.49414,11.761719 -23.55015,10.620285 -43.76549,27.606895 -58.28516,48.974605 -13.17966,19.39572 -20.91565,41.19457 -24.5371,63.00782 -3.60954,21.74147 -3.14908,43.27758 -0.46485,63.7832 3.04868,23.28972 8.63855,44.19589 12.42188,63.45703 3.77312,19.20923 5.76195,37.0839 3.74023,52.72852 -1.92675,14.90974 -7.73336,29.4355 -16.53125,41.08203 -5.77722,7.64781 -13.130533,14.1211 -21.197264,19.17383 -6.170777,-3.38153 -12.431793,-6.58873 -18.806641,-9.56836 11.841468,-7.79471 21.630601,-17.77281 29.066405,-29.04688 8.31523,-12.60744 13.67392,-26.36994 16.73047,-40.21094 6.09364,-27.59387 3.04675,-54.42053 -2.55664,-78.35742 C 104.39504,232.41047 85.417172,193.96314 85.824219,160.04102 86.064264,140.03634 92.506066,119.36948 103.56055,101.46484 114.66777,83.474788 130.57178,67.742333 149.07812,55.488281 178.72081,35.860257 215.14095,25.668476 250.93945,26.367187 Z M 85.572266,504.24219 c 13.569489,9.52727 25.816584,20.25711 35.835934,32.33203 14.08179,16.97079 24.02818,36.92116 27.46094,57.03711 4.46259,26.15073 -1.81332,57.47292 -6.64648,93.1875 -2.42269,17.9024 -4.27418,37.19623 -2.72071,57.60156 1.56189,20.5159 6.64222,42.05168 18.1875,61.84766 10.91291,18.71166 26.70338,34.12351 45.67383,44.58007 11.32497,6.24236 23.56611,10.44097 36.17578,12.76563 l 10.54688,50.89062 c -11.82194,-0.30659 -23.61581,-2.20452 -34.70899,-5.97265 -20.37418,-6.9207 -39.08481,-19.85887 -52.75195,-36.47852 -22.5274,-27.39397 -32.82953,-66.55426 -32.9375,-106.22265 -0.0712,-26.15242 3.98388,-54.18783 6.70898,-84.35547 2.73008,-30.22264 4.07624,-63.07784 -3.82421,-96.58399 -4.25957,-18.06496 -11.31035,-36.45837 -22.92969,-53.17382 -7.00336,-10.07496 -15.629031,-19.34661 -25.783205,-27.07227 0.568752,-0.13839 1.1459,-0.23689 1.712891,-0.38281 z M 242.79687,864.17773 c 0.93629,0.1463 1.85698,0.37758 2.79688,0.50196 -1.07962,-0.14286 -1.98978,-0.27589 -2.79688,-0.50196 z" id="path20385" /></svg:g></svg:svg>
